icons/Map/bus-fill.svg

<svg viewBox="0 0 24 24" xmlns="http://www.w3.org/2000/svg"><path d="M17 20H7V21C7 21.5523 6.55228 22 6 22H5C4.44772 22 4 21.5523 4 21V20H3V12H2V8H3V5C3 3.89543 3.89543 3 5 3H19C20.1046 3 21 3.89543 21 5V8H22V12H21V20H20V21C20 21.5523 19.5523 22 19 22H18C17.4477 22 17 21.5523 17 21V20ZM5 5V14H19V5H5ZM5 16V18H9V16H5ZM15 16V18H19V16H15Z"/></svg>

<svg xmlns="http://www.w3.org/2000/svg" viewBox="0 0 24 24">
    <g>
        <path fill="none" d="M0 0h24v24H0z"/>
        <path d="M17 20H7v1a1 1 0 0 1-1 1H5a1 1 0 0 1-1-1v-1H3v-8H2V8h1V5a2 2 0 0 1 2-2h14a2 2 0 0 1 2 2v3h1v4h-1v8h-1v1a1 1 0 0 1-1 1h-1a1 1 0 0 1-1-1v-1zM5 5v9h14V5H5zm0 11v2h4v-2H5zm10 0v2h4v-2h-4z"/>
    </g>
</svg>
